X: 933
T: Stoney Lonesome
C:Bill Monroe
B: jims roots
M:C|
L:1/8
Q: 1/4=100
K:A
V:1 
%N:Remembered from someplace, Jim Kendrick
|:"A"[ee][e2a2][ee][e3a3]e | [e=g][ee][eg][ee] [ea][eg][ee]d | [ee][e2a2]b [e2a2][e2e2]|"E"dede "A"_c=c[A2c2] |
|:"A"Acdc A2AA | edce deAF |"G"=GABA GFGA | BAGB d2cB |
"A"Acdc A2AA | edcd efef | "(G)"=g2 (3fgf e2 d2 |"E"cdcd "A"ecA2:|
V:ee 
V:e2a2 
[ee][e3a3]e | [e=g][ee][eg][ee] [e2a2]ef | "(G)"=g2 (3fgf e2 d2 | "E"cdcd "A"ecA2:|
% abcbook-tune_id 6298c2872dcb6c99657aae90


% abcbook-boost 0
% abcbook-tablature 
% abcbook-transpose 
% abcbook-lastupdated 1654178440940
% abcbook-soundfonts 
% abcbook-repeats 1


